X:115
T: Jungbrunnen
N: A0133B
O: Europa, Mitteleuropa, Deutschland
N: Praetorius Mus. Sion. VII No. 74 (1609)
R: Romanze, Ballade, Lied
M: 4/2
L: 1/2
K: G
G | GA_BG | =F2G
A | _BcA2 | G2z
G | GA_BG | =F2G
A | _BcA2 | G2z
A | =FFGA | _B2c
B | AG=FG | A2z
A | GGAG | =F2G
A | _BcBA | GFG

@@@ Tune index: 115
